X:174
T: Csak titokban akartalak szeretni
T: Csak titokban akartalak szeretni
O: Gyimesközéplok, 1957
Q: "Tempo guisto" 1/4=96
M:4/4
L:1/4
K:F
g/g/f/d/ f/d/c/B/ | c<d B z | 
g/g/f/d/ f/d/c/c/ | G<G G z | 
c/c/B/B/ c/c/f/d/ | c<d B z | 
B/G/F/E/ F/F/c/c/ | G<G G z | 

